X: 41043
T: Trip To London, The
R: jig
M: 6/8
K: Gmajor
(A|:B)GE DBD|~G3 Bcd|cBA A^GA|fed ^cd=c|
BGE DBD|~G3 Bcd|cea Bdg|1 AGF G2A:|2 AGFG2d||
|:B2g dBg|~B3 gdB|~c2a eca|c3 aec|
B2g dBg|~B3 gdB|cea Bdg|1 Afe dcA:|2 AGF G3||

